color/emc2.svg

<!-- Generated by IcoMoon.io -->
<svg version="1.1" xmlns="http://www.w3.org/2000/svg" width="32" height="32" viewBox="0 0 32 32">
<title>emc2</title>
<path fill="#0cf" d="M32 16c0 8.837-7.163 16-16 16s-16-7.163-16-16c0-8.837 7.163-16 16-16s16 7.163 16 16z"></path>
<path fill="#fff" opacity="0.4" d="M7.894 19.161h4.397l-1.893 3.839h-4.398l1.894-3.839zM10.399 14.081h4.398l-1.887 3.829h-4.4l1.89-3.83zM12.905 9.001h4.398l-1.889 3.83h-4.397l1.888-3.831z"></path>
<path fill="#fff" opacity="0.6" d="M12.277 19.16h4.398l-1.894 3.838h-4.398l1.894-3.839zM14.783 14.080h4.397l-1.888 3.828h-4.398l1.889-3.828zM17.288 9h4.398l-1.889 3.829h-4.397l1.888-3.829z"></path>
<path fill="#fff" d="M16.59 19.16h4.398l-1.893 3.838h-4.398l1.894-3.839zM19.096 14.080h4.398l-1.888 3.828h-4.398l1.888-3.828zM21.602 9h4.398l-1.889 3.829h-4.397l1.888-3.829z"></path>
</svg>

<svg xmlns="http://www.w3.org/2000/svg" width="32" height="32"><g fill="none"><circle cx="16" cy="16" r="16" fill="#0CF"/><g fill="#FFF"><path fill-opacity=".4" d="M7.894 19.161h4.397L10.398 23H6l1.894-3.839zm2.505-5.08h4.398L12.91 17.91h-4.4l1.89-3.83zm2.506-5.08h4.398l-1.889 3.83h-4.397L12.905 9z"/><path fill-opacity=".6" d="M12.277 19.16h4.398l-1.894 3.838h-4.398l1.894-3.839zm2.506-5.08h4.397l-1.888 3.828h-4.398l1.889-3.828zM17.288 9h4.398l-1.889 3.829H15.4L17.288 9z"/><path d="M16.59 19.16h4.398l-1.893 3.838h-4.398l1.894-3.839zm2.506-5.08h4.398l-1.888 3.828h-4.398l1.888-3.828zM21.602 9H26l-1.889 3.829h-4.397L21.602 9z"/></g></g></svg>
